X:1
T:Schottis från Ljusnarsberg
R:Schottis
M:2/4
L:1/16
Z:Andy Davey 2018
K:Gm
D2 |: G>AG^F D2GA | B>cBA G2B2 | A>BA^F D2FG | A2A2 D3D | 
      G>AG^F D2GA | B>cBA G2B2 | A>BA^F D2=EF |[1 G6 D2 :|[2 G6 =Bc ]|
|: d>=ed=B G2 g2 | (3g^fga^f d4 | d>=ed=B G2 g2 | (3g^fga^f d4 | 
   d>edc A2Ac | B>cBA G2B2 | A>BA^F D2=EF |[1 G6 Bc :|[2 G6 ||   

